web/packages/design/src/ResourceIcon/assets/cilium-light.svg

<svg width="72" height="72" viewBox="0 0 72 72" fill="none" xmlns="http://www.w3.org/2000/svg">
<path fill-rule="evenodd" clip-rule="evenodd" d="M62.968 39.5996H52.2313L46.7996 49.1139L52.2313 58.4995H62.968L68.3994 49.1139L62.968 39.5996Z" fill="#8061A9"/>
<path fill-rule="evenodd" clip-rule="evenodd" d="M62.968 14.3994H52.2313L46.7996 23.9136L52.2313 33.2992H62.968L68.3994 23.9136L62.968 14.3994Z" fill="#F17323"/>
<path fill-rule="evenodd" clip-rule="evenodd" d="M41.368 2.39941H30.6313L25.1997 11.9136L30.6313 21.2992H41.368L46.7996 11.9136L41.368 2.39941Z" fill="#F8C517"/>
<path fill-rule="evenodd" clip-rule="evenodd" d="M19.7684 14.3994H9.0317L3.60007 23.9136L9.0317 33.2992H19.7684L25.1999 23.9136L19.7684 14.3994Z" fill="#CADD72"/>
<path fill-rule="evenodd" clip-rule="evenodd" d="M41.368 27H30.6313L25.1997 36.5143L30.6313 45.8999H41.368L46.7996 36.5143L41.368 27Z" fill="#E82629"/>
<path fill-rule="evenodd" clip-rule="evenodd" d="M19.7684 39.5996H9.0317L3.60007 49.1139L9.0317 58.4995H19.7684L25.1999 49.1139L19.7684 39.5996Z" fill="#98C93E"/>
<path fill-rule="evenodd" clip-rule="evenodd" d="M41.368 51.5996H30.6313L25.1997 61.1139L30.6313 70.4995H41.368L46.7996 61.1139L41.368 51.5996Z" fill="#628AC6"/>
<path fill-rule="evenodd" clip-rule="evenodd" d="M40.822 44.3502H31.1779L26.299 36.0574L31.1779 27.6509H40.822L45.7008 36.0574L40.822 44.3502ZM42.5612 24.6006H29.4L22.8 36.0391L29.4 47.4005H42.5612L49.1997 36.0391L42.5612 24.6006Z" fill="#363736"/>
<path fill-rule="evenodd" clip-rule="evenodd" d="M29.3998 49.2002L22.8 60.6387L29.3998 71.9999H42.5612L49.1997 60.6387L42.5612 49.2002H29.3998ZM26.2987 60.657L31.1777 52.2505H40.8218L45.7008 60.657L40.8218 68.9498H31.1777L26.2987 60.657Z" fill="#363736"/>
<path fill-rule="evenodd" clip-rule="evenodd" d="M29.3998 0L22.8 11.4386L29.3998 22.7997H42.5612L49.1997 11.4386L42.5612 0H29.3998ZM26.2987 11.4566L31.1777 3.05028H40.8218L45.7008 11.4566L40.8218 19.7495H31.1777L26.2987 11.4566Z" fill="#363736"/>
<path fill-rule="evenodd" clip-rule="evenodd" d="M50.9995 37.2002L44.3996 48.6387L50.9995 59.9999H64.1608L70.7993 48.6387L64.1608 37.2002H50.9995ZM47.8987 48.6568L52.7775 40.2503H62.4216L67.3003 48.6568L62.4216 56.9498H52.7775L47.8987 48.6568Z" fill="#363736"/>
<path fill-rule="evenodd" clip-rule="evenodd" d="M50.9995 12L44.3996 23.4387L50.9995 34.7999H64.1608L70.7993 23.4387L64.1608 12H50.9995ZM47.8987 23.4568L52.7775 15.0503H62.4216L67.3003 23.4568L62.4216 31.7496H52.7775L47.8987 23.4568Z" fill="#363736"/>
<path fill-rule="evenodd" clip-rule="evenodd" d="M7.79984 37.2002L1.2 48.6387L7.79984 59.9999H20.9613L27.5997 48.6387L20.9613 37.2002H7.79984ZM4.69894 48.6568L9.57773 40.2503H19.2219L24.1008 48.6568L19.2219 56.9498H9.57773L4.69894 48.6568Z" fill="#363736"/>
<path fill-rule="evenodd" clip-rule="evenodd" d="M7.79984 12L1.2 23.4387L7.79984 34.7999H20.9613L27.5997 23.4387L20.9613 12H7.79984ZM4.69894 23.4568L9.57773 15.0503H19.2219L24.1008 23.4568L19.2219 31.7496H9.57773L4.69894 23.4568Z" fill="#363736"/>
</svg>

<svg xmlns="http://www.w3.org/2000/svg" width="72" height="72" fill="none" viewBox="0 0 72 72"><path fill="#8061a9" fill-rule="evenodd" d="M62.968 39.6H52.231L46.8 49.114l5.43 9.386h10.737l5.431-9.386z" clip-rule="evenodd"/><path fill="#f17323" fill-rule="evenodd" d="M62.968 14.4H52.231L46.8 23.913l5.431 9.385h10.737l5.431-9.385z" clip-rule="evenodd"/><path fill="#f8c517" fill-rule="evenodd" d="M41.368 2.4H30.631L25.2 11.913l5.431 9.385h10.737l5.432-9.385z" clip-rule="evenodd"/><path fill="#cadd72" fill-rule="evenodd" d="M19.768 14.4H9.032L3.6 23.913l5.432 9.385h10.736l5.432-9.385z" clip-rule="evenodd"/><path fill="#e82629" fill-rule="evenodd" d="M41.368 27H30.631L25.2 36.514l5.43 9.386h10.737l5.432-9.386z" clip-rule="evenodd"/><path fill="#98c93e" fill-rule="evenodd" d="M19.768 39.6H9.032L3.6 49.114 9.032 58.5h10.736l5.432-9.386z" clip-rule="evenodd"/><path fill="#628ac6" fill-rule="evenodd" d="M41.368 51.6H30.631L25.2 61.114l5.43 9.386h10.737l5.432-9.386z" clip-rule="evenodd"/><path fill="#363736" fill-rule="evenodd" d="M40.822 44.35h-9.644l-4.879-8.293 4.879-8.406h9.644l4.879 8.406zm1.74-19.75H29.4l-6.6 11.44 6.6 11.36h13.161L49.2 36.04zM29.4 49.2l-6.6 11.44L29.4 72h13.16l6.64-11.36-6.64-11.44zm-3.101 11.457 4.879-8.406h9.644l4.879 8.406-4.88 8.293h-9.643zM29.4 0l-6.6 11.439 6.6 11.36h13.16L49.2 11.44 42.56 0zm-3.101 11.457 4.879-8.407h9.644l4.879 8.407-4.88 8.293h-9.643zM51 37.2l-6.6 11.44L51 60h13.16l6.64-11.36-6.64-11.44zm-3.101 11.457 4.879-8.407h9.644l4.878 8.407-4.878 8.293h-9.644zM51 12l-6.6 11.439 6.6 11.36h13.16l6.64-11.36L64.16 12zm-3.101 11.457 4.879-8.407h9.644l4.878 8.407-4.878 8.293h-9.644zM7.8 37.2 1.2 48.64 7.8 60h13.16l6.64-11.36-6.64-11.44zM4.699 48.657l4.879-8.407h9.644l4.879 8.407-4.88 8.293H9.579zM7.8 12 1.2 23.439l6.6 11.36h13.16L27.6 23.44 20.96 12zM4.699 23.457l4.879-8.407h9.644l4.879 8.407-4.88 8.293H9.579z" clip-rule="evenodd"/></svg>
